X: 5918
T: Camembert, The
R: waltz
M: 3/4
K: Dminor
Ade fed|B4A2|_A=Be _a=b_a|=a4AG|FAd AFD|
EGc GEC|DF_B AGF|F3 EcB|Ade fed|B4A2|
_A=Be _a=b_a|=a4AG|FAd AFD|EGc GEc|
d_bB gE_d|=d3 ed_d|c3 egb|baf cA2|_d2A =B_de|
e=dA FD2|DG_B dgd|DFA dfd|A_de gfe|=d3 ed_d|
c3 egb|baf cA2|_d2A =B_de|e=dA FD2|DG_B dgd|
DFA dfd|A_de age|=dxd2

